client/resources/iconsets/breeze/src/svg/16x16/icon_recurrence.svg

<svg xmlns="http://www.w3.org/2000/svg" width="16" height="16" viewBox="0 0 16 16">
  <path
     style="fill:#6d6d70"
     d="M 12.5 0 A 3.5 3.5 0 0 0 9 3.5 A 3.5 3.5 0 0 0 12.5 7 A 3.5 3.5 0 0 0 16 3.5 A 3.5 3.5 0 0 0 12.5 0 z M 12.5 1 A 2.5 2.5 0 0 1 15 3.5 A 2.5 2.5 0 0 1 12.5 6 A 2.5 2.5 0 0 1 10 3.5 A 2.5 2.5 0 0 1 12.5 1 z M 4 2 L 4 4 L 1.9316406 4 C 0.86184065 4 -8.108886e-06 4.9391186 0 6.1054688 L 0 12.894531 C 8.1085372e-06 14.060831 0.86189064 15 1.9316406 15 L 14.068359 15 C 15.138159 15 16 14.060881 16 12.894531 L 16 10.105469 C 16 8.9391682 15.136437 8.0597899 14.068359 8 L 12 8 L 12 10 L 13.998047 10 C 13.996047 10.009 14 10.0263 14 10.105469 L 14 12.894531 C 14 12.973631 13.996047 12.991131 13.998047 13 L 2.0039062 13 C 2.0049063 12.991 2 12.9737 2 12.894531 L 2 6.1054688 C 1.9999994 6.0262688 2.0049062 6.0088698 2.0039062 6 L 4 6 L 4 8 L 8 5 L 4 2 z M 12 2 L 12 4 L 13 4 L 14 4 L 14 3 L 13 3 L 13 2 L 12 2 z "
     />
</svg>

<svg xmlns="http://www.w3.org/2000/svg" width="16" height="16"><path d="M12.5 0a3.5 3.5 0 1 0 0 7 3.5 3.5 0 1 0 0-7zm0 1a2.5 2.5 0 1 1 0 5 2.5 2.5 0 1 1 0-5zM4 2v2H1.932C.862 4 0 4.939 0 6.105v6.789C0 14.061.862 15 1.932 15h12.137c1.07 0 1.932-.939 1.932-2.105v-2.789C16 8.939 15.136 8.06 14.068 8H12v2h1.998c-.002.009.002.026.002.105v2.789l-.002.105H2.004c.001-.009-.004-.026-.004-.105V6.105L2.004 6H4v2l4-3-4-3zm8 0v2h1 1V3h-1V2h-1z" fill="#6d6d70"/></svg>
